X:513
T:She's as False as She's Fair
M:6/8
L:1/8
B:O'Neill's 513
N:"Gaily" "collected  by F. O'Neill
Z:Transcribed by Dave Wooldridge
K:Gm
(B/2c/2) \
| d>ed c2 B | A>BG ^F2 D | G>AB {d}(c<A)^F | (G3 G2) :|
(B/2c/2) \
| d2 b {b}a2 g | (f<d)g f2 d | B>cB fed | c>dB A z F |
B>AB c>Bc | d2 G H^F2 D | G>AB {d}(c<A)^F | (G3 G2) ||


